svg/fluentui-system-icons/ic_fluent_align_stretch_horizontal_16_regular.svg

<svg width="16" height="16" viewBox="0 0 16 16" fill="none" xmlns="http://www.w3.org/2000/svg">
<path d="M3 1.5C3 1.22386 2.77614 1 2.5 1C2.22386 1 2 1.22386 2 1.5V14.5C2 14.7761 2.22386 15 2.5 15C2.77614 15 3 14.7761 3 14.5V1.5ZM14 1.5C14 1.22386 13.7761 1 13.5 1C13.2239 1 13 1.22386 13 1.5V14.5C13 14.7761 13.2239 15 13.5 15C13.7761 15 14 14.7761 14 14.5V1.5ZM4 4.5C4 3.67157 4.67157 3 5.5 3H10.5C11.3284 3 12 3.67157 12 4.5V5.5C12 6.32843 11.3284 7 10.5 7H5.5C4.67157 7 4 6.32843 4 5.5V4.5ZM5.5 4C5.22386 4 5 4.22386 5 4.5V5.5C5 5.77614 5.22386 6 5.5 6H10.5C10.7761 6 11 5.77614 11 5.5V4.5C11 4.22386 10.7761 4 10.5 4H5.5ZM5.5 9C4.67157 9 4 9.67157 4 10.5V11.5C4 12.3284 4.67157 13 5.5 13H10.5C11.3284 13 12 12.3284 12 11.5V10.5C12 9.67157 11.3284 9 10.5 9H5.5ZM5 10.5C5 10.2239 5.22386 10 5.5 10H10.5C10.7761 10 11 10.2239 11 10.5V11.5C11 11.7761 10.7761 12 10.5 12H5.5C5.22386 12 5 11.7761 5 11.5V10.5Z" fill="#212121"/>
</svg>

<svg xmlns="http://www.w3.org/2000/svg" width="16" height="16"><path d="M3 1.5a.5.5 0 0 0-1 0v13a.5.5 0 0 0 1 0v-13Zm11 0a.5.5 0 0 0-1 0v13a.5.5 0 0 0 1 0v-13Zm-10 3A1.5 1.5 0 0 1 5.5 3h5A1.5 1.5 0 0 1 12 4.5v1A1.5 1.5 0 0 1 10.5 7h-5A1.5 1.5 0 0 1 4 5.5v-1ZM5.5 4a.5.5 0 0 0-.5.5v1a.5.5 0 0 0 .5.5h5a.5.5 0 0 0 .5-.5v-1a.5.5 0 0 0-.5-.5h-5Zm0 5A1.5 1.5 0 0 0 4 10.5v1A1.5 1.5 0 0 0 5.5 13h5a1.5 1.5 0 0 0 1.5-1.5v-1A1.5 1.5 0 0 0 10.5 9h-5ZM5 10.5a.5.5 0 0 1 .5-.5h5a.5.5 0 0 1 .5.5v1a.5.5 0 0 1-.5.5h-5a.5.5 0 0 1-.5-.5v-1Z"/></svg>
